!!!COA:	Josquin des Prez
!!!CDT:	~1450-1521/08/27
!!!COM: Moulu
!!!OPR:	Missa Missus est Gabriel Angelus
!!!ONM:	4
!!!OTL:	Sanctus
!!!AGN:	Mass; Sanctus
!!!SCT:	NJE 10.2
!!!SCA:	New Josquin Edition 10.2
!!!voices: 4
!!!voices-OPR:	4
**kern	**kern	**kern	**kern
*staff4	*staff3	*staff2	*staff1
*Ivox	*Ivox	*Ivox	*Ivox
*I"Bassus	*I"Tenor	*I"Altus	*I"Superius
*I'B	*I'T	*I'A	*I'S
*>[A,B,C,D,C]	*>[A,B,C,D,C]	*>[A,B,C,D,C]	*>[A,B,C,D,C]
*>Sanctus[A]	*>Sanctus[A]	*>Sanctus[A]	*>Sanctus[A]
*>Pleni[B]	*>Pleni[B]	*>Pleni[B]	*>Pleni[B]
*>Osanna[C]	*>Osanna[C]	*>Osanna[C]	*>Osanna[C]
*>Benedictus[D]	*>Benedictus[D]	*>Benedictus[D]	*>Benedictus[D]
*>A	*>A	*>A	*>A
*clefF4	*clefGv2	*clefGv2	*clefG2
*k[b-]	*k[b-]	*k[b-]	*k[b-]
*M2/1	*M2/1	*M2/1	*M2/1
*met(C|)	*met(C|)	*met(C|)	*met(C|)
=1-	=1-	=1-	=1-
!!section: Sanctus
!!!OMD: Sanctus
0r	0r	0r	0G
=2	=2	=2	=2
0r	0r	0r	1G
.	.	.	[1d
=3	=3	=3	=3
0r	0r	0G	2d/]
.	.	.	4c/
.	.	.	4d/
.	.	.	4e/
.	.	.	4d/
.	.	.	[2g/
=4	=4	=4	=4
0r	0r	1G	2g/]
.	.	.	4f/
.	.	.	4e/
.	.	[1d	2f/
.	.	.	2B-/
=5	=5	=5	=5
0r	0G	2d\]	2r
.	.	4c\	2b-\
.	.	4d\	.
.	.	4e\	2g/
.	.	4d\	.
.	.	[2g\	[2b-\
=6	=6	=6	=6
0r	1G	2g\]	2b-\]
.	.	4f\	4a/
.	.	4e\	4g/
.	[1d	1f	2a/
.	.	.	[2b-\
=7	=7	=7	=7
0GG	2d\]	1B-	2b-\]
.	4c\	.	2a/
.	4d\	.	.
.	2e\	2r	[1g
.	[2d\	[2B-\	.
=8	=8	=8	=8
1GG	2d\]	4B-\]	1g]
.	.	4c\	.
.	4c\	1d	.
.	4B-\	.	.
[1D	1A	.	[1f
.	.	4c\	.
.	.	4B-\	.
=9	=9	=9	=9
2D\]	1F	2.A/	1f]
4C/	.	.	.
4D\	.	4B-\	.
2E\	2G/	2c\	2r
2D\	2A/	[2d\	2f/
=10	=10	=10	=10
1.G	2.B-\	4d\]	2g/
.	.	4c\	.
.	.	4B-\	1b-
.	4c\	4A/	.
.	1d	1G	.
4F\	.	.	4a/
4E\	.	.	4g/
=11	=11	=11	=11
2F\	2r	2r	2a/
2G\	1d	2G/	2.b-\
2D\	.	1A	.
.	.	.	4a/
2F\	2c\	.	[2a/
=12	=12	=12	=12
2G\	2B-\	2B-\	2a/]
2E\	2G/	2c\	1g
1D	1A	1d	.
.	.	.	2f#i/
=13	=13	=13	=13
1GG	0G	2e-i\	[0g
.	.	2.d\	.
2r	.	.	.
.	.	4c\	.
[2G\	.	4B-\	.
.	.	4A/	.
=14	=14	=14	=14
2G\]	0r	2.B-\	1g]
2G\	.	.	.
.	.	4G/	.
2F\	.	2A/	1r
[2G\	.	[2B-\	.
=15	=15	=15	=15
4G\]	1.G	4B-\]	2r
4F\	.	4A/	.
4E\	.	1d	1g
4D\	.	.	.
1E	.	.	.
.	2G/	2c#i\	2g/
=16	=16	=16	=16
1D	1A	2d\	2.f/
.	.	1f	.
.	.	.	4g/
1r	2F/	.	2a/
.	[2c\	[2e\	[2g/
=17	=17	=17	=17
0r	2c\]	4e\]	4g/]
.	.	4d\	4f/
.	2B-\	1d	4e/
.	.	.	4d/
.	[1A	.	1e
.	.	2c#i\	.
=18	=18	=18	=18
2.D\	1A]	1d	4d/
.	.	.	4e/
.	.	.	4f/
4E\	.	.	4g/
2F\	1r	2r	2a/
[2G\	.	[2d\	[2b-\
=19	=19	=19	=19
2G\]	2r	4d\]	2b-\]
.	.	4e\	.
4F\	1d	1f	4a/
4E\	.	.	4g/
2D\	.	.	4f/
.	.	.	4g/
[2F\	4c\	4e\	4a/
.	4B-\	4d\	4b-\
=20	=20	=20	=20
4F\]	2A/	2c\	2.cc\
4E\	.	.	.
2.C/	2.c\	2.e-i\	.
.	.	.	4b-\
.	.	.	2.g/
4D\	4B-\	4d\	.
4E\	[2G/	[2B-\	.
4F\	.	.	4a/
=21	=21	=21	=21
2G\	4G/]	4B-\]	2.b-\
.	4A/	4c\	.
4F\	4B-\	2.d\	.
4E\	4c\	.	4a/
1D	2.d\	.	2f/
.	.	4A/	.
.	.	[2d\	[2a/
.	4c\	.	.
=22	=22	=22	=22
1E-	2B-\	2d\]	4a/]
.	.	.	4g/
.	4A/	2c\	1g
.	4G/	.	.
1D	1A	1d	.
.	.	.	2f#i/
=23	=23	=23	=23
0GGl	0Gl	0dl	0gl
!!LO:LB:i:g=z
=24||	=24||	=24||	=24||
*>B	*>B	*>B	*>B
*clefF4	*clefGv2	*clefGv2	*clefG2
*k[b-]	*k[b-]	*k[b-]	*k[b-]
*M2/1	*M2/1	*M2/1	*M2/1
*met(C|)	*met(C|)	*met(C|)	*met(C|)
!!!OMD: Pleni sunt celi
!!section: Pleni sunt celi
0r	0r	0d	0r
=25	=25	=25	=25
0r	0r	1d	0r
.	.	1d	.
=26	=26	=26	=26
0r	0r	1.f	0a
.	.	4e\	.
.	.	4d\	.
=27	=27	=27	=27
0r	0r	2c\	1a
.	.	2.d\	.
.	.	.	1a
.	.	4e\	.
.	.	[2f\	.
=28	=28	=28	=28
0r	0r	2f\]	1.cc
.	.	4e\	.
.	.	4d\	.
.	.	2c\	.
.	.	2d\	4b-\
.	.	.	4a/
=29	=29	=29	=29
0r	0r	1e	2.g/
.	.	.	4a/
.	.	1d	1b-
=30	=30	=30	=30
0r	0r	2r	[0a
.	.	1d	.
.	.	4c\	.
.	.	4B-\	.
=31	=31	=31	=31
0r	0r	2c\	0a]
.	.	2d\	.
.	.	2A/	.
.	.	[2d\	.
=32	=32	=32	=32
0r	0r	2d\]	2r
.	.	4c\	1a
.	.	4B-\	.
.	.	2c\	.
.	.	2d\	4g/
.	.	.	4f/
=33	=33	=33	=33
0r	0r	1e-i	2.g/
.	.	.	4a/
.	.	2d\	2.b-\
.	.	[2g\	.
.	.	.	4g/
=34	=34	=34	=34
0r	0r	2g\]	4a/
.	.	.	4b-\
.	.	2f\	4cc\
.	.	.	4a/
.	.	2g\	2.b-\
.	.	4f\	.
.	.	4e\	4g/
=35	=35	=35	=35
0r	0r	0d	2a/
.	.	.	2.b-\
.	.	.	8a/L
.	.	.	8g/J
.	.	.	2a/
=36	=36	=36	=36
0r	0r	2r	2.b-\
.	.	2.d\	.
.	.	.	8a/L
.	.	.	8g/J
.	.	.	2a/
.	.	4c\	.
.	.	4B-\	[2b-\
.	.	4A/	.
=37	=37	=37	=37
0r	0r	2G/	4b-\]
.	.	.	4g/
.	.	2.d\	2a/
.	.	.	2.b-\
.	.	4G/	.
.	.	2d\	.
.	.	.	8a/L
.	.	.	8g/J
=38	=38	=38	=38
0r	0r	2c\	2a/
.	.	2B-\	1g
.	.	1A	.
.	.	.	2f#i/
=39	=39	=39	=39
0r	0r	1G	0g
.	.	2r	.
.	.	[2G/	.
=40	=40	=40	=40
0r	0r	2G/]	1r
.	.	2A/	.
.	.	2B-\	2r
.	.	[2c\	[2g/
=41	=41	=41	=41
0r	0r	2c\]	2g/]
.	.	4B-\	2a/
.	.	4A/	.
.	.	2G/	2b-\
.	.	4F/	[2cc\
.	.	4G/	.
=42	=42	=42	=42
0r	0r	4A/	2cc\]
.	.	4B-\	.
.	.	4c\	4b-\
.	.	4d\	4a/
.	.	2e\	2g/
.	.	[2f\	[2a/
=43	=43	=43	=43
0r	0r	4f\]	4a/]
.	.	4e\	4g/
.	.	1d	2f/
.	.	.	1e
.	.	2c#i\	.
=44	=44	=44	=44
0r	0r	1d	0d
.	.	2r	.
.	.	2d\	.
=45	=45	=45	=45
0r	0r	2d\	2r
.	.	1f	2a/
.	.	.	2a/
.	.	4e\	[2cc\
.	.	4d\	.
=46	=46	=46	=46
0r	0r	0c	2cc\]
.	.	.	4b-\
.	.	.	4a/
.	.	.	2g/
.	.	.	[2a/
=47	=47	=47	=47
0r	0r	1d	4a/]
.	.	.	4g/
.	.	.	4f/
.	.	.	4e/
.	.	[1f	4d/
.	.	.	4e/
.	.	.	4f/
.	.	.	4g/
=48	=48	=48	=48
0r	0r	2f\]	4a/
.	.	.	4b-\
.	.	2f\	1cc
.	.	2e\	.
.	.	2d\	2b-\
=49	=49	=49	=49
0r	0r	1f	2a/
.	.	.	1cc
.	.	2e\	.
.	.	2d\	2b-\
=50	=50	=50	=50
0r	0r	2.f\	2a/
.	.	.	2.cc\
.	.	4e\	.
.	.	2c\	.
.	.	.	4b-\
.	.	[2d\	4a/
.	.	.	4g/
=51	=51	=51	=51
0r	0r	2d\]	2f/
.	.	2c\	1a
.	.	2.d\	.
.	.	.	4g/
.	.	8c\L	4f/
.	.	8B-\J	.
=52	=52	=52	=52
0r	0r	2c\	2e/
.	.	2.d\	4d/
.	.	.	4e/
.	.	.	4f/
.	.	8c\L	4g/
.	.	8B-\J	.
.	.	2c\	[2a/
=53	=53	=53	=53
0r	0r	2.d\	4a/]
.	.	.	4g/
.	.	.	1g
.	.	8c\L	.
.	.	8B-\J	.
.	.	1A	.
.	.	.	2f#i/
=54	=54	=54	=54
0r	0r	0Gl	0gl
!!LO:LB:i:g=z
=55||	=55||	=55||	=55||
*>C	*>C	*>C	*>C
*clefF4	*clefGv2	*clefGv2	*clefG2
*k[b-]	*k[b-]	*k[b-]	*k[b-]
*M2/1	*M2/1	*M2/1	*M2/1
*met(C|)	*met(C|)	*met(C|)	*met(C|)
!!!OMD: Osanna
!!section: Osanna
[0G	[0B-	1.d	0r
.	.	[2B-\	.
=56	=56	=56	=56
0G]	0B-]	4B-\]	0r
.	.	4c\	.
.	.	2d\	.
.	.	2G/	.
.	.	[2d\	.
=57	=57	=57	=57
0D	0F	2d\]	0r
.	.	4c\	.
.	.	4B-\	.
.	.	1A	.
=58	=58	=58	=58
[0GG	0G	2G/	1.dd
.	.	2.B-\	.
.	.	4c\	.
.	.	2d\	[2b-\
=59	=59	=59	=59
0GG]	0G	4G/	4b-\]
.	.	4A/	4cc\
.	.	4B-\	2dd\
.	.	4c\	.
.	.	2.d\	2g/
.	.	.	[2dd\
.	.	4e\	.
=60	=60	=60	=60
0r	0d	2f\	2dd\]
.	.	1g	4cc\
.	.	.	4b-\
.	.	.	1a
.	.	2f#i\	.
=61	=61	=61	=61
0r	0e	1g	0g
.	.	1c	.
=62	=62	=62	=62
1.D	0d	1f	0r
.	.	2r	.
[2BB-/	.	[2f\	.
=63	=63	=63	=63
4BB-/]	1r	4f\]	0r
4C/	.	4e\	.
2D\	.	4d\	.
.	.	4c\	.
2GG/	[1d	1B-	.
[2D\	.	.	.
=64	=64	=64	=64
2D\]	1d]	2A/	0r
4C/	.	1G	.
4BB-/	.	.	.
1AA	1c	.	.
.	.	2F#i/	.
=65	=65	=65	=65
0GG	0B-	0G	2.d/
.	.	.	8c/L
.	.	.	8d/J
.	.	.	4e/
.	.	.	4d/
.	.	.	[2g/
=66	=66	=66	=66
1r	1c	0A	2g/]
.	.	.	4f#i/
.	.	.	4e/
2.D\	1d	.	1f#i
8C/L	.	.	.
8D/J	.	.	.
=67	=67	=67	=67
4E\	1r	2.G/	1g
4D\	.	.	.
1G	.	.	.
.	.	4A/	.
.	1d	2B-\	1r
4F#i\	.	2G/	.
4E\	.	.	.
=68	=68	=68	=68
1F#i	1c	1A	1r
1G	1B-	1G	1d
=69	=69	=69	=69
0r	2.c\	2r	4e/
.	.	.	4d/
.	.	2c\	1g
.	4B-\	.	.
.	2G/	2B-\	.
.	2B-\	[2d\	4f#i/
.	.	.	4e/
=70	=70	=70	=70
1D	1A	2d\]	1f#i
.	.	2d\	.
2E\	1G	2B-\	1g
[2G\	.	2G/	.
=71	=71	=71	=71
2G\]	2r	2.B-\	0r
4F#i\	1d	.	.
4E\	.	4c\	.
1F#i	.	1A	.
.	2c\	.	.
=72	=72	=72	=72
1.G	1B-	2.G/	1d
.	.	4A/	.
.	1G	2.B-\	2e/
4F\	.	.	[2g/
4E\	.	4c\	.
=73	=73	=73	=73
0D	2.B-\	[0dl	2g/]
.	.	.	4f#i/
.	4c\	.	4e/
.	1A	.	1f#i
=74	=74	=74	=74
0GGl	0Gl	0d]	0gl
!!LO:LB:i:g=z
!!LO:TX:rj:i:Y=30:t=fine
=75||	=75||	=75||	=75||
*>D	*>D	*>D	*>D
*clefF4	*clefGv2	*clefGv2	*clefG2
*k[b-]	*k[b-]	*k[b-]	*k[b-]
*M2/1	*M2/1	*M2/1	*M2/1
*met(C|)	*met(C|)	*met(C|)	*met(C|)
!!!OMD: Benedictus
!!section: Benedictus
0r	0r	0d	0r
=76	=76	=76	=76
0r	0r	1.d	0r
.	.	4c\	.
.	.	4B-\	.
=77	=77	=77	=77
0r	0r	2c\	0a
.	.	2d\	.
.	.	2A/	.
.	.	[2d\	.
=78	=78	=78	=78
0r	0r	2d\]	1.a
.	.	4c\	.
.	.	4B-\	.
.	.	2c\	.
.	.	2d\	4g/
.	.	.	4f/
=79	=79	=79	=79
0r	0r	2e-i\	2g/
.	.	2.d\	2a/
.	.	.	[1b-
.	.	4c\	.
.	.	4B-\	.
.	.	4A/	.
=80	=80	=80	=80
0r	0r	2G/	2b-\]
.	.	1d	4a/
.	.	.	4g/
.	.	.	2f/
.	.	2B-\	2g/
=81	=81	=81	=81
0r	0r	2c\	2a/
.	.	2d\	2f/
.	.	1e-i	2g/
.	.	.	[2b-\
=82	=82	=82	=82
1r	0r	1.d	2b-\]
.	.	.	4a/
.	.	.	4g/
[1D	.	.	[1a
.	.	4c\	.
.	.	4B-\	.
=83	=83	=83	=83
1D]	0r	2A/	2a/]
.	.	1B-	2d/
[1D	.	.	[1d
.	.	4A/	.
.	.	4G/	.
=84	=84	=84	=84
2D\]	0r	2F/	1d]
4C/	.	1A	.
4BB-/	.	.	.
2C/	.	.	1r
2D\	.	4G/	.
.	.	4F/	.
=85	=85	=85	=85
1.E-i	0r	2.G/	0r
.	.	4A/	.
.	.	[1B-	.
4D\	.	.	.
4C/	.	.	.
=86	=86	=86	=86
2BB-/	0r	2B-\]	0r
2C/	.	4A/	.
.	.	4G/	.
2D\	.	2F/	.
2BB-/	.	2G/	.
=87	=87	=87	=87
2C/	0r	1A	1r
2.D\	.	.	.
.	.	2r	1a
4C/	.	.	.
4BB-/	.	[2d\	.
4AA/	.	.	.
=88	=88	=88	=88
2GG/	0r	4d\]	1b-
.	.	4e\	.
1D	.	1f	.
.	.	.	[1a
4C/	.	4e\	.
4BB-/	.	4d\	.
=89	=89	=89	=89
2C/	0r	2e\	2a/]
2D\	.	1d	4g/
.	.	.	4f/
1E	.	.	2.g/
.	.	2c#i\	.
.	.	.	4a/
=90	=90	=90	=90
0D	0r	1d	2b-\
.	.	.	1a
.	.	2r	.
.	.	2d\	4g/
.	.	.	4f/
=91	=91	=91	=91
0r	0r	1e-i	2.g/
.	.	.	4a/
.	.	[1d	1b-
=92	=92	=92	=92
0r	0r	2d\]	1.a
.	.	4c\	.
.	.	4B-\	.
.	.	2.c\	.
.	.	.	4g/
.	.	4d\	4f/
=93	=93	=93	=93
2r	0r	2e-i\	2g/
2D\	.	1d	1b-
1E-i	.	.	.
.	.	2c\	4a/
.	.	.	4g/
=94	=94	=94	=94
1.D	0r	1d	2f/
.	.	.	2.d/
.	.	2r	.
.	.	.	4e/
4C/	.	[2A/	4f/
4BB-/	.	.	4d/
=95	=95	=95	=95
2.C/	0r	2A/]	2.e/
.	.	4G/	.
4D\	.	4F/	4d/
2E-i\	.	2G/	2g/
[2D\	.	2A/	[2f/
=96	=96	=96	=96
2D\]	0r	2B-\	4f/]
.	.	.	4d/
2C/	.	2c\	1g
1D	.	1A	.
.	.	.	2f#i/
=97	=97	=97	=97
2r	0r	1G	1g
2G\	.	.	.
2G\	.	2r	1r
2D\	.	2d\	.
=98	=98	=98	=98
2.F\	0r	2d\	0r
.	.	2A/	.
4E\	.	.	.
2C/	.	2.c\	.
[2G\	.	.	.
.	.	4B-\	.
=99	=99	=99	=99
4G\]	0r	2G/	0r
4F\	.	.	.
4D\	.	2.d\	.
4E\	.	.	.
2.F\	.	.	.
.	.	4c\	.
.	.	4A/	.
4E\	.	4B-\	.
=100	=100	=100	=100
2.C/	0r	2.c\	0r
4D\	.	4B-\	.
4E\	.	2G/	.
4C/	.	.	.
[2D\	.	2B-\	.
=101	=101	=101	=101
4D\]	0r	2A/	0r
4C/	.	.	.
2BB-/	.	1G	.
1AA	.	.	.
.	.	2F#i/	.
=102	=102	=102	=102
1GG	0r	2G/	1r
.	.	2g\	.
2G\	.	2g\	2r
2G\	.	2d\	2dd\
=103	=103	=103	=103
2D\	0r	2.f\	2dd\
2.F\	.	.	2a/
.	.	4e\	.
.	.	2c\	2.cc\
4E\	.	.	.
2C/	.	[2g\	.
.	.	.	4b-\
=104	=104	=104	=104
2.G\	0r	4g\]	2g/
.	.	4f\	.
.	.	4d\	2.dd\
4F\	.	4e\	.
4D\	.	2.f\	.
4E\	.	.	4cc\
[2F\	.	.	4a/
.	.	4e\	4b-\
=105	=105	=105	=105
4F\]	0r	2.c\	2.cc\
4E\	.	.	.
2C/	.	.	.
.	.	4d\	4b-\
2G\	.	4e\	2g/
.	.	4c\	.
2D\	.	[2d\	2b-\
=106	=106	=106	=106
2F\	0r	2d\]	2a/
2G\	.	4c\	1g
.	.	4B-\	.
1D	.	1A	.
.	.	.	2f#i/
=107	=107	=107	=107
1GG	0r	2G/	1g
.	.	2g\	.
2G\	.	2g\	2r
2G\	.	2d\	2dd\
=108	=108	=108	=108
2D\	0r	2.f\	2dd\
2.F\	.	.	2a/
.	.	4e\	.
.	.	2c\	2.cc\
4E\	.	.	.
2C/	.	[2g\	.
.	.	.	4b-\
=109	=109	=109	=109
2.G\	0r	4g\]	2g/
.	.	4f\	.
.	.	4d\	2.dd\
4F\	.	4e\	.
4D\	.	2.f\	.
4E\	.	.	4cc\
[2F\	.	.	4a/
.	.	4e\	4b-\
=110	=110	=110	=110
4F\]	0r	2.c\	2.cc\
4E\	.	.	.
2C/	.	.	.
.	.	4d\	4b-\
2G\	.	4e\	2g/
.	.	4c\	.
2D\	.	[2d\	2b-\
=111	=111	=111	=111
2F\	0r	2d\]	2a/
2G\	.	4c\	1g
.	.	4B-\	.
1D	.	1A	.
.	.	.	2f#i/
=112	=112	=112	=112
0GGl	0r	0Gl	0gl
!!LO:TX:i:Y=40:rj:t=Osanna ut supra
==	==	==	==
*-	*-	*-	*-
!!!RDF**kern: l=long note in original notation
!!!RDF**kern: i=editorial accidental
!!!ENC:	Will Watson 07/07/2011
!!!END:	2011/07/07/
!!!EED:	Jesse Rodin
!!!EEV: 2012/04/24/
!!attribution-level@Jos: 4 (questionable)
!!!ONB:	Translated from MusicXML and edited on 2011/12/26/ by Craig Sapp
!!muse2ps: T^@{OPR}^u^@{ONM}{. }@{OTL}^C^@{COM}{/}@{COA}?\n@{SCT}^i2I100v85,85,85,150c95Q16
